X:1
T:The Harbor Bell
T:The Harbor Bell
T:Ira David Sankey
T:John Henry Yates, 1891
T:Public Domain Courtesy of the Cyber Hymnal™
T:Public Domain Courtesy of the Cyber Hymnal™
C:Ira David Sankey
Z:Public Domain
Z:Courtesy of the Cyber Hymnal™
%%score ( 1 2 ) ( 3 4 )
L:1/8
Q:1/4=90
M:3/4
K:F
V:1 treble 
V:2 treble 
V:3 bass 
V:4 bass 
V:1
 C[CF]>[CG] | [FA]3 [FB] [FA]>[EG] | F3 [CF] [CF]>[FA] | [Fc]3 [Fd] [Fc]>[FA] | [EG]3 C [CF]>[CG] | %5
w: 1.~Our life is|like a storm- y|sea Swept by the|gales of sin and|grief, While on the|
w: 2.~O let us|now the call o-|bey, And steer our|bark for yon- der|shore, Where still that|
w: 3.~O tempt- ed|one, look up, be|strong; The prom- ise|of the Lord is|sure, That they shall|
w: 4.~Come, gra- cious|Lord, and in Thy|love Con- duct us|o’er life’s storm- y|wave; O guide us|
 [FA]3 F [FA]>[FB] | [Fc]3 F [FB]>[FA] | [FA]3 [EG] F>[CE] | [CF]3 [Fc] [Fc]>[FA] | %9
w: wind- ward and the|lee Hang heav- y|clouds of un- be-|lief; But o’er the|
w: voice di- rects the|way, In plead- ing|tones for- ev- er-|more; A thou- sand|
w: sing the vic- tor’s|song, Who faith- ful|to the end en-|dure; God’s Ho- ly|
w: to the home a-|bove, The bliss- ful|home be- yond the|grave; There safe from|
 [Fd]3 [^Fc] [Fc]>[FA] | [GB]3 [FB] [EB]>[EG] | [Ge]3 [Ed] [Fc]>[EG] | [FA]3 C [CF]>[CG] | %13
w: deep a call we|hear, Like har- bor|bell’s in- vit- ing|voice; It tells the|
w: life wrecks strew the|sea; They’re go- ing|down at ev- ery|swell; “Come un- to|
w: Spir- it comes to|thee, Of His a-|bid- ing love to|tell; To bliss- ful|
w: rock, and storm, and|flood, Our song of|praise shall nev- er|cease, To Him who|
 [FA]3 F [FA]>[FB] | [Fc]3 F [FB]>[FA] | [FA]3 [EG] F>[CE] | [CF]3 ||"^Refrain" [Fc][Fc]>[FA] | %18
w: lost that hope is|near, And bids the|trem- bling soul re-|joice.||
w: Me, come un- to|Me,” Rings out th’|assur- ing har- bor|bell.||
w: port, o’er storm- y|sea, Calls Heav’n’s in-|vit- ing har- bor|bell.||
w: bought us with His|blood, And brought us|to the port of|peace.||
 [Fc]3 [FA] [FA]>[_Ec] | [DB]3 [DF] [DF]>[_DG] | [CA]3 [CA] [CG]>F | [Ec]3 [Cc] [Fc]>[FA] | %22
w: ||||
w: ||||
w: ||||
w: ||||
 [Fc]3 [FA] [FA]>[_Ec] | [DB]3 [Fd] [Fd]>[Fd] |"^riten." [Fc]3 [FA] [EA]>[EG] | F3 |] %26
w: ||||
w: ||||
w: ||||
w: ||||
V:2
 C x2 | x6 | F3 x3 | x6 | x3 C x2 | x3 F x2 | x3 F x2 | x4 F3/2 x/ | x6 | x6 | x6 | x6 | x3 C x2 | %13
 x3 F x2 | x3 F x2 | x4 F3/2 x/ | x3 || x3 | x6 | x6 | x11/2 F/ | x6 | x6 | x6 | x6 | F3 |] %26
V:3
 [F,A,][F,A,]>[F,B,] | [F,C]3 [B,,D] [C,C]>[C,B,] | [F,A,]3 [F,A,] [F,A,]>[F,C] | %3
w: ~ ~ ~|~ ~ ~ ~|~ ~ ~ ~|
 [F,A,]3 [B,,B,] [A,,C]>[F,,C] | [C,C]3 [E,B,] [F,A,]>[F,B,] | [F,C]3 [F,A,] [F,C]>[F,G,] | %6
w: ~ ~ ~ ~|~ ~ ~ ~|~ ~ ~ ~|
 [F,A,]3 [F,A,] [F,D]>[F,C] | [C,C]3 [C,B,] [C,A,]>[C,G,] | [F,A,]3 [F,A,] [F,A,]>F, | %9
w: ~ ~ ~ ~|~ ~ ~ ~|~ ~ ~ ~|
 [D,A,]3 [D,A,] [D,A,]>[D,D] | [G,D]3 [G,D] [C,C]>[C,B,] | [C,B,]3 [C,G,] [C,A,]>[C,C] | %12
w: ~ ~ ~ ~|~ ~ ~ ~|~ ~ ~ ~|
 [F,C]3 [F,A,] [F,A,]>[F,B,] | [F,C]3 [F,A,] [F,C]>[F,G,] | [F,A,]3 [F,A,] [F,D]>[F,C] | %15
w: ~ ~ ~ ~|~ ~ ~ ~|~ ~ ~ ~|
 [C,C]3 [C,B,] [C,A,]>[C,G,] | [F,A,]3 || [F,A,][F,A,]>[F,C] | [F,A,]3 [F,C] [F,C]>[A,,F,] | %19
w: ~ ~ ~ ~|~|This way, this|way, O heart op-|
 [B,,F,]3 [B,,F,] [B,,F,]>[B,,F,] | F,3 [F,C] [E,C]>[D,=B,] | [C,C]3 [E,B,] [F,A,]>[F,C] | %22
w: pressed, So long by|storm and tem- pest|driv’n; This way, this|
 [F,A,]3 [F,C] [F,C]>[A,,F,] | [B,,F,]3 [B,,B,] [B,,B,]>[B,,B,] | [C,A,]3 [C,C] [C,C]>[C,B,] | %25
w: way, lo here is|rest, Rings out the|har- bor bell of|
 [F,A,]3 |] %26
w: Heav’n.|
V:4
 x3 | x6 | x6 | x6 | x6 | x6 | x6 | x6 | x11/2 F,/ | x6 | x6 | x6 | x6 | x6 | x6 | x6 | x3 || x3 | %18
 x6 | x6 | F,3 x3 | x6 | x6 | x6 | x6 | x3 |] %26

